front/src/Assets/image/sidebar/Key_alt_light.svg

<svg width="24" height="24" viewBox="0 0 24 24" fill="none" xmlns="http://www.w3.org/2000/svg">
<path d="M3.5 6.7C3.5 5.57989 3.5 5.01984 3.71799 4.59202C3.90973 4.21569 4.21569 3.90973 4.59202 3.71799C5.01984 3.5 5.57989 3.5 6.7 3.5H17.3C18.4201 3.5 18.9802 3.5 19.408 3.71799C19.7843 3.90973 20.0903 4.21569 20.282 4.59202C20.5 5.01984 20.5 5.57989 20.5 6.7V17.3C20.5 18.4201 20.5 18.9802 20.282 19.408C20.0903 19.7843 19.7843 20.0903 19.408 20.282C18.9802 20.5 18.4201 20.5 17.3 20.5H6.7C5.57989 20.5 5.01984 20.5 4.59202 20.282C4.21569 20.0903 3.90973 19.7843 3.71799 19.408C3.5 18.9802 3.5 18.4201 3.5 17.3V6.7Z" stroke="#666666" stroke-width="1.2"/>
<circle cx="8.5" cy="11.5" r="2" stroke="#666666"/>
<path d="M10.5 11.5H15.5M17.5 13.5V11.65C17.5 11.5672 17.4328 11.5 17.35 11.5H15.5M15.5 11.5V13.5" stroke="#666666" stroke-linecap="round"/>
</svg>

<svg xmlns="http://www.w3.org/2000/svg" fill="none" viewBox="0 0 24 24">
  <path stroke="#666" stroke-width="1.2" d="M3.5 6.7c0-1.12 0-1.68.218-2.108a2 2 0 01.874-.874C5.02 3.5 5.58 3.5 6.7 3.5h10.6c1.12 0 1.68 0 2.108.218a2 2 0 01.874.874c.218.428.218.988.218 2.108v10.6c0 1.12 0 1.68-.218 2.108a2 2 0 01-.874.874c-.428.218-.988.218-2.108.218H6.7c-1.12 0-1.68 0-2.108-.218a2 2 0 01-.874-.874C3.5 18.98 3.5 18.42 3.5 17.3V6.7z"/>
  <circle cx="8.5" cy="11.5" r="2" stroke="#666"/>
  <path stroke="#666" stroke-linecap="round" d="M10.5 11.5h5m2 2v-1.85a.15.15 0 00-.15-.15H15.5m0 0v2"/>
</svg>
